svg/uf00b8-lightfall.svg

<svg height="960" style="" width="1530" xmlns="http://www.w3.org/2000/svg"><path d="m765.00003 0-164.82588 245.48571h329.65178zm.80894 325.02857a68.571429 68.571429 0 00-68.49912 68.57143 68.571429 68.571429 0 0068.57143 68.57143 68.571429 68.571429 0 0068.57143-68.57143 68.571429 68.571429 0 00-68.57143-68.57143 68.571429 68.571429 0 00-.0723 0zm-260.70269 62.04643-138.81964 206.75357h318.1125c25.00586 0 36.16755-31.39577 16.77322-47.18035zm520.40892.92679-194.92499 158.64643c-19.39436 15.78474-8.23277 47.18035 16.77321 47.18035h316.34998zm-607.52678 292.22678c-68.57539 0-132.64529 34.15468-170.87143 91.0875l-126.68839 188.68393h597.45268v-252.34286c0-15.14837-12.28019-27.42857-27.42857-27.42857h-114.51428c-20.07162 0-36.34286 16.27125-36.34286 36.34286v147.42857h-89.14286v-136.86429a161.15106 161.15106 0 015.30625-41.0116l1.55089-5.89554zm423.32143 0c-15.14837 0-27.42857 12.2802-27.42857 27.42857v65.82857h288.00002v91.88572h-288.00002v94.62857h595.69012l-126.6884-188.68393c-38.2261-56.93282-102.296-91.0875-170.8714-91.0875z" style="stroke-width:1.37143"/></svg>

<svg xmlns="http://www.w3.org/2000/svg" width="1530" height="960">
    <path d="M765 0 600.174 245.486h329.652zm.809 325.029a68.57 68.57 0 0 0-68.5 68.571 68.57 68.57 0 0 0 68.572 68.571 68.57 68.57 0 0 0 68.572-68.571 68.57 68.57 0 0 0-68.572-68.571zm-260.703 62.046-138.82 206.754H684.4c25.006 0 36.168-31.396 16.773-47.18zm520.41.927L830.59 546.648c-19.394 15.785-8.233 47.18 16.773 47.18h316.35zM417.987 680.229c-68.575 0-132.645 34.154-170.871 91.087L120.429 960H717.88V707.657c0-15.148-12.28-27.428-27.428-27.428H575.938c-20.071 0-36.342 16.27-36.342 36.342V864h-89.143V727.136a161.2 161.2 0 0 1 5.306-41.012l1.55-5.895zm423.322 0c-15.149 0-27.429 12.28-27.429 27.428v65.829h288v91.885h-288V960h595.69l-126.688-188.684c-38.226-56.933-102.296-91.087-170.871-91.087z" style="stroke-width:1.37143"/>
</svg>
